flaticon/gastronomy/water.svg

<svg xmlns="http://www.w3.org/2000/svg" width="32" height="32" viewBox="0 0 24 24">
    <path d="M 16.265625 17.429688 L 16.269531 17.429688 L 16.226562 16.898438 C 16.152344 16.007812 15.917969 15.070312 15.488281 13.949219 C 15.363281 13.632812 15.296875 13.277344 15.269531 12.917969 C 15.207031 12.121094 15.363281 11.304688 15.722656 10.839844 C 15.792969 10.75 15.851562 10.648438 15.90625 10.546875 C 16.148438 10.125 16.28125 9.617188 16.28125 9.078125 C 16.277344 9.035156 16.277344 8.996094 16.273438 8.957031 L 16.257812 8.34375 L 16.246094 8.347656 C 15.980469 5.230469 14.144531 4.40625 13.539062 4.214844 C 13.488281 4.121094 13.414062 3.945312 13.367188 3.617188 C 13.363281 3.59375 13.355469 3.570312 13.351562 3.546875 C 13.816406 3.390625 14.15625 3.132812 14.15625 2.730469 L 14.15625 1.003906 C 14.15625 0.261719 12.996094 0 12 0 C 11.003906 0 9.84375 0.261719 9.84375 1.003906 L 9.84375 2.730469 C 9.84375 3.132812 10.183594 3.390625 10.648438 3.546875 C 10.644531 3.570312 10.636719 3.59375 10.632812 3.617188 C 10.582031 3.945312 10.511719 4.121094 10.445312 4.222656 C 9.851562 4.40625 8.019531 5.230469 7.753906 8.347656 L 7.738281 8.34375 L 7.722656 8.960938 C 7.722656 9 7.71875 9.035156 7.71875 9.078125 C 7.714844 9.746094 7.914062 10.371094 8.277344 10.839844 C 8.601562 11.261719 8.765625 11.976562 8.746094 12.699219 C 8.738281 12.988281 8.703125 13.28125 8.636719 13.554688 C 8.601562 13.691406 8.5625 13.824219 8.511719 13.949219 C 8.40625 14.230469 8.308594 14.5 8.226562 14.757812 C 7.972656 15.535156 7.828125 16.230469 7.773438 16.898438 C 7.640625 18.523438 7.519531 20.769531 7.6875 22.300781 C 7.703125 23.082031 8.433594 24 11.785156 24 C 14.59375 24 16.28125 23.367188 16.3125 22.300781 C 16.460938 20.929688 16.378906 18.984375 16.265625 17.429688 Z M 8.691406 16.523438 C 8.699219 16.441406 8.710938 16.363281 8.726562 16.28125 C 8.75 16.152344 8.777344 16.023438 8.808594 15.890625 C 8.828125 15.808594 8.84375 15.734375 8.863281 15.652344 C 8.902344 15.503906 8.949219 15.351562 8.996094 15.195312 C 9.019531 15.125 9.035156 15.054688 9.058594 14.980469 C 9.136719 14.75 9.222656 14.511719 9.316406 14.261719 C 9.667969 13.355469 9.691406 12.246094 9.441406 11.347656 C 9.332031 10.949219 9.175781 10.589844 8.960938 10.3125 C 8.957031 10.308594 8.957031 10.304688 8.953125 10.300781 C 8.902344 10.234375 8.855469 10.160156 8.8125 10.082031 C 8.800781 10.058594 8.789062 10.03125 8.777344 10.007812 C 8.746094 9.941406 8.71875 9.875 8.695312 9.804688 C 8.6875 9.78125 8.679688 9.757812 8.671875 9.730469 C 8.644531 9.644531 8.625 9.550781 8.613281 9.457031 C 9.582031 9.664062 10.761719 9.773438 12 9.773438 C 13.238281 9.773438 14.417969 9.664062 15.386719 9.457031 C 15.375 9.554688 15.351562 9.644531 15.328125 9.734375 C 15.320312 9.757812 15.3125 9.78125 15.300781 9.804688 C 15.28125 9.875 15.253906 9.941406 15.222656 10.007812 C 15.210938 10.03125 15.199219 10.058594 15.183594 10.082031 C 15.140625 10.164062 15.09375 10.242188 15.039062 10.3125 C 14.601562 10.882812 14.375 11.773438 14.390625 12.679688 C 14.398438 13.222656 14.492188 13.773438 14.683594 14.261719 C 14.78125 14.511719 14.863281 14.75 14.941406 14.984375 C 14.964844 15.054688 14.980469 15.121094 15.003906 15.191406 C 15.050781 15.347656 15.097656 15.503906 15.136719 15.652344 C 15.15625 15.734375 15.171875 15.8125 15.191406 15.894531 C 15.222656 16.023438 15.25 16.152344 15.273438 16.28125 C 15.289062 16.367188 15.300781 16.449219 15.3125 16.53125 C 15.324219 16.613281 15.332031 16.695312 15.34375 16.777344 C 14.40625 16.988281 13.238281 17.101562 12 17.101562 C 10.761719 17.101562 9.59375 16.988281 8.65625 16.777344 C 8.667969 16.691406 8.675781 16.605469 8.691406 16.523438 Z M 10.707031 1.101562 C 10.84375 1.015625 11.273438 0.863281 12 0.863281 C 12.726562 0.863281 13.15625 1.015625 13.292969 1.101562 L 13.292969 2.636719 C 13.183594 2.707031 12.871094 2.820312 12.367188 2.859375 C 12.128906 2.875 11.871094 2.875 11.632812 2.859375 C 11.128906 2.820312 10.816406 2.707031 10.707031 2.636719 Z M 10.699219 5.046875 C 10.917969 4.976562 11.097656 4.835938 11.207031 4.640625 C 11.335938 4.417969 11.429688 4.113281 11.511719 3.714844 C 11.523438 3.71875 11.539062 3.714844 11.546875 3.71875 C 11.699219 3.730469 11.851562 3.734375 12 3.734375 C 12.167969 3.734375 12.332031 3.730469 12.515625 3.742188 C 12.570312 4.113281 12.664062 4.414062 12.792969 4.640625 C 12.902344 4.835938 13.082031 4.976562 13.300781 5.046875 C 13.765625 5.191406 15.222656 5.863281 15.398438 8.570312 C 14.457031 8.789062 13.265625 8.910156 12 8.910156 C 10.734375 8.910156 9.546875 8.789062 8.601562 8.570312 C 8.78125 5.863281 10.234375 5.191406 10.699219 5.046875 Z M 15.453125 22.226562 L 15.449219 22.277344 C 15.449219 22.496094 14.546875 23.136719 11.785156 23.136719 C 9.226562 23.136719 8.550781 22.574219 8.550781 22.277344 L 8.546875 22.226562 C 8.40625 20.960938 8.476562 19.140625 8.582031 17.640625 C 9.5625 17.851562 10.75 17.964844 12 17.964844 C 13.25 17.964844 14.441406 17.851562 15.417969 17.640625 C 15.523438 19.140625 15.59375 20.960938 15.453125 22.226562 Z M 15.453125 22.226562"/>
    <path d="M11.917969 2.101562C12.15625 2.101562 12.351562 1.90625 12.351562 1.667969 12.351562 1.429688 12.15625 1.238281 11.917969 1.238281L11.488281 1.238281C11.25 1.238281 11.058594 1.429688 11.058594 1.667969 11.058594 1.90625 11.25 2.101562 11.488281 2.101562zM11.335938 21.410156C10.523438 21.441406 10.230469 21.25 10.144531 21.167969 10.066406 21.09375 10.058594 21.027344 10.058594 21.027344L10.058594 20.550781C10.058594 20.3125 9.867188 20.121094 9.628906 20.121094 9.390625 20.121094 9.199219 20.3125 9.199219 20.550781L9.199219 20.960938C9.183594 21.164062 9.253906 21.476562 9.496094 21.738281 9.828125 22.09375 10.386719 22.273438 11.160156 22.273438 11.226562 22.273438 11.296875 22.273438 11.371094 22.269531 11.609375 22.261719 11.792969 22.0625 11.785156 21.824219 11.773438 21.585938 11.554688 21.398438 11.335938 21.410156zM9.628906 19.6875C9.867188 19.6875 10.058594 19.496094 10.058594 19.257812L10.058594 18.820312C10.058594 18.582031 9.867188 18.390625 9.628906 18.390625 9.390625 18.390625 9.199219 18.582031 9.199219 18.820312L9.199219 19.257812C9.199219 19.496094 9.390625 19.6875 9.628906 19.6875zM9.984375 8.042969C10.011719 8.046875 10.035156 8.046875 10.058594 8.046875 10.265625 8.046875 10.445312 7.902344 10.484375 7.691406 10.65625 6.730469 11.507812 6.296875 11.542969 6.28125 11.753906 6.175781 11.84375 5.917969 11.742188 5.703125 11.636719 5.492188 11.382812 5.402344 11.164062 5.503906 11.113281 5.53125 9.886719 6.136719 9.636719 7.539062 9.59375 7.773438 9.75 8 9.984375 8.042969zM9.984375 8.042969"/>
</svg>

<svg xmlns="http://www.w3.org/2000/svg" width="32" height="32" viewBox="0 0 24 24">
    <path d="M16.266 17.43h.004l-.043-.532c-.075-.89-.309-1.828-.739-2.949a3.565 3.565 0 0 1-.218-1.031c-.063-.797.093-1.613.453-2.078.07-.09.129-.192.183-.293.242-.422.375-.93.375-1.469-.004-.043-.004-.082-.008-.121l-.015-.613-.012.004c-.266-3.118-2.101-3.942-2.707-4.133-.05-.094-.125-.27-.172-.598-.004-.023-.012-.047-.015-.07.464-.156.804-.414.804-.817V1.004C14.156.262 12.996 0 12 0c-.996 0-2.156.262-2.156 1.004V2.73c0 .403.34.66.804.817-.003.023-.011.047-.015.07-.051.328-.121.504-.188.606-.593.183-2.425 1.007-2.691 4.125l-.016-.004-.015.617c0 .039-.004.074-.004.117-.004.668.195 1.293.558 1.762.325.422.489 1.137.47 1.86-.009.288-.044.581-.11.855a3.1 3.1 0 0 1-.125.394c-.106.281-.203.551-.285.809a9.273 9.273 0 0 0-.454 2.14c-.132 1.625-.253 3.872-.085 5.403.015.781.746 1.699 4.097 1.699 2.809 0 4.496-.633 4.527-1.7.149-1.37.067-3.316-.046-4.87zm-7.575-.907c.008-.082.02-.16.036-.242.023-.129.05-.258.082-.39.02-.082.035-.157.054-.239.04-.148.086-.3.133-.457.024-.07.04-.14.063-.215.078-.23.164-.468.257-.718.352-.907.375-2.016.125-2.914-.109-.399-.265-.758-.48-1.036-.004-.003-.004-.007-.008-.011a1.748 1.748 0 0 1-.14-.219l-.036-.074a1.839 1.839 0 0 1-.082-.203l-.023-.075a1.544 1.544 0 0 1-.059-.273c.969.207 2.149.316 3.387.316s2.418-.109 3.387-.316c-.012.098-.035.188-.059.277-.008.024-.015.047-.027.07-.02.071-.047.137-.078.204-.012.023-.024.05-.04.074a1.53 1.53 0 0 1-.144.23c-.437.57-.664 1.461-.648 2.368.007.543.101 1.093.293 1.582.097.25.18.488.257.722.024.07.04.137.063.207.047.157.094.313.133.461.02.082.035.16.054.243a6.818 6.818 0 0 1 .121.636c.012.082.02.164.032.246-.938.211-2.106.325-3.344.325s-2.406-.114-3.344-.325c.012-.086.02-.172.035-.254zm2.016-15.421c.137-.086.566-.239 1.293-.239s1.156.153 1.293.239v1.535c-.11.07-.422.183-.926.222a5.758 5.758 0 0 1-.734 0c-.504-.039-.817-.152-.926-.222zm-.008 3.945a.88.88 0 0 0 .508-.406c.129-.223.223-.528.305-.926.011.004.027 0 .035.004.152.011.305.015.453.015.168 0 .332-.004.516.008.054.371.148.672.277.899a.88.88 0 0 0 .508.406c.465.144 1.922.816 2.097 3.523-.941.22-2.132.34-3.398.34s-2.453-.12-3.398-.34c.18-2.707 1.632-3.379 2.097-3.523zm4.754 17.18l-.004.05c0 .22-.902.86-3.664.86-2.558 0-3.234-.563-3.234-.86l-.004-.05c-.14-1.266-.07-3.086.035-4.586.98.21 2.168.324 3.418.324s2.441-.113 3.418-.324c.105 1.5.176 3.32.035 4.586zm0 0"/>
    <path d="M11.918 2.102a.432.432 0 0 0 0-.863h-.43a.432.432 0 0 0 0 .863zm0 0M11.336 21.41c-.813.031-1.106-.16-1.191-.242-.079-.074-.086-.14-.086-.14v-.477a.428.428 0 0 0-.43-.43.428.428 0 0 0-.43.43v.41c-.015.203.055.516.297.777.332.356.89.535 1.664.535.067 0 .137 0 .211-.003a.429.429 0 0 0 .414-.446.444.444 0 0 0-.45-.414zm0 0M9.629 19.688c.238 0 .43-.192.43-.43v-.438a.428.428 0 0 0-.43-.43.428.428 0 0 0-.43.43v.438c0 .238.192.43.43.43zm0 0M9.984 8.043c.028.004.051.004.075.004a.43.43 0 0 0 .425-.356c.172-.96 1.024-1.394 1.059-1.41.21-.105.3-.363.2-.578a.437.437 0 0 0-.579-.2c-.05.028-1.277.634-1.527 2.036a.434.434 0 0 0 .347.504zm0 0"/>
</svg>
